X:1
T:Modena, 76.76 D
T:Isaac Baker Woodbury (1819-1858)
T:Modena, 76.76 D
T:Public Domain
C:Isaac Baker Woodbury (1819-1858)
Z:Public Domain
%%score ( 1 2 ) 3
L:1/8
M:4/4
K:C
V:1 treble 
V:2 treble 
V:3 bass 
V:1
 [EG]2 | [EG]2 [Ge]2 [Ge]2 [Gc]2 | [Ac]4 [FA]2 [FA]2 | G2 [Ge]2 [Ge]2 [Gc]2 | [Gd]6 [EG]2 | %5
 [EG]2 [Ge]2 [Ge]2 [Gc]2 | [Ac]4 [FA]2 [FA]2 | G2 [Ec]2 [Ge]2 [Fd]2 | [Ec]6 [EG]2 | %9
 [EG]2 [DF]2 [FA]2 [EG]2 | [EG]4 [CE]2 [EG]2 | [EG]2 [DF]2 [FA]2 [EG]2 | [EG]6 [EG]2 | %13
 [EG]2 [Ge]2 [Ge]2 [Gc]2 | [Ac]4 [FA]2 [FA]2 | G2 [Ec]2 [Ge]2 [Fd]2 | [Ec]6 |] %17
V:2
 x2 | x8 | x8 | G2 x6 | x8 | x8 | x8 | G2 x6 | x8 | x8 | x8 | x8 | x8 | x8 | x8 | G2 x6 | x6 |] %17
V:3
 [C,C]2 | [C,C]2 [C,C]2 [C,C]2 [E,C]2 | [F,C]4 [F,C]2 [F,C]2 | [E,C]2 [C,C]2 [C,C]2 [E,C]2 | %4
 [G,B,]6 [C,C]2 | [C,C]2 [C,C]2 [C,C]2 [E,C]2 | [F,C]4 [F,C]2 [F,C]2 | %7
 [E,C]2 [C,C]2 [G,C]2 [G,B,]2 | [C,C]6 [C,C]2 | [C,C]2 [C,G,]2 [C,G,]2 [C,G,]2 | %10
 [C,G,]4 [C,G,]2 [C,C]2 | [C,C]2 [C,G,]2 [C,G,]2 [C,G,]2 | [C,G,]6 [C,C]2 | %13
 [C,C]2 [C,C]2 [C,C]2 [E,C]2 | [F,C]4 [F,C]2 [F,C]2 | [E,C]2 [C,C]2 [G,C]2 [G,B,]2 | [C,C]6 |] %17

